X:538
T:Bonnie Lass O'Fyvie #2
C:Joe Buchanan's Scottish Tome - Page 064.4
I:064 4
Z:Carl Allison
R:Reel
L:1/8
M:4/4
K:G
D | G>F GA G D>D | G>F GA G2> G2 | A Bc d2 cB | A2 D2 D2> c2 |
B>A Bc d2 D2 | G>A GE C2 B,C | D2 G>G AGFE | D2 G>A G2 :|

